X:1
T:[ID 8-95a]
T:[ID 8-95a]
T:Bezeichnung standardisiert: Schwabisch Schwabisch
T:Urheber unbekannt Datum in der hier transkribierten schriftlichen Quelle: 1792
C:Urheber unbekannt
C:Datum in der hier transkribierten schriftlichen Quelle: 1792
L:1/8
M:3/8
K:D
V:1 treble 
V:1
 dcd | faf | afa | afa | dcB | AGF | GGF | E2 z :: ece | ece | ece | a2 z | fef | gfg | afe | %15
 d2 z :: F/F/G/G/A/A/ | B/B/c/c/d/d/ | e/e/f/f/g/g/ | afd | AGF | AGF | ABc | d2 z :| %24

